X:1
T:Captain Pringle of Vair
C:(unknown)
R:Strathspey
%Q:128
S:http://www.math.mun.ca/~bshawyer/straths/CaptainPringleOfVair.abc 2011-11-16
N:Chords by John Chambers
K:D
M:C
L:1/16
B2 |\
"D"A3B A3F A3B d3e | "D"fd3 "(G)"g3f "A7"eE3 E3F |\
"D"A3B A3F A3B d3g | "A7"(3f2g2a2 (3e2f2g2 "D"fd3 d3 :|
fg |\
"D"a3f fa3 "G"bg3 g3b | "D"a3f "Em"gfed "A7"ce3 e2fg |\
"D"a3f fa3 "G"bg3 g3b | "A7"a3f gfed "D"Ad3 d3 |]
fg |\
"D"a3f fa3 "G"bg3 g3b | "Em"bagf gfed "A7"ce3 e2fg |\
"D"a3f "A7"g3e "Bm"f3d "A7"e3c | "G"(3B2c2d2 "A7"(3e2f2g2 "D"fd3 d2 |]
